X:2952
T:\AAsmund Fr\aegdegjeva
C:anon.
O:Norway
A:Seljord
N:After Eivind Aln\aes
Z:Transcribed by Frank Nordberg - http://www.musicaviva.com
F:http://abc.musicaviva.com/tunes/norway/aasmund-fraegdegjeva/aasmund-fraegdegjeva-1.abc
M:6/8
L:1/8
K:Dm
d2d|e2d A2=B|^c3- c2d|e>fe d2^c|
w:Det var Ir-lands kon-ge bold,_ han ta-la til si-ne
A3-A2 z|A2=B (^cB)A|^c2e dc=B|A>^GA F>=GF|
w:menn:_ "Kven skal nord_ i Trol-le-bot-nen og hen-te mi dot-ter
E3-E3|({E}^G2)A F2E|D3D3|z2z|]
w:heim?"_ Der er in-gen da-gen.
W:
W:Det var Irlands konge bold, han tala til sine menn:
W:"Kven skal nord i Trollebotnen og hente mi dotter heim?"
W:  Der er ingen dagen.
W:
W:"H\oyrer du, \AAsmund Fr\aegdegj\aeva, du er den fr\aegast' i londo;
W:du skal nord i Tollebotnen og l\oyse mi dotter or vondo.
W:  Der er ingen dagen.
W:
W:Du skal f\aa fru Ermelin, ho er s\aa vent eit viv,
W:vil du nord i den m\orke heimen og v\aage for henne ditt liv."
W:  Der er ingen dagen.
W:
W:"Og vil du gjeva dotter di, den vene fru Ermelin,
W:s\aa fer eg nord i den skume heimen som ingi soli skin."
W:  Der er ingen dagen.
W:
W:
W:  From Musica Viva - http://www.musicaviva.com
W:  the Internet center for free sheet music downloads.

